libs/icons/src/svg/sync.svg

<svg width="16" height="16" viewBox="0 0 16 16" fill="none" xmlns="http://www.w3.org/2000/svg">
<g clip-path="url(#clip0_3_3766)">
<path fill-rule="evenodd" clip-rule="evenodd" d="M14.6229 0.472723C14.9877 0.522194 15.2434 0.858072 15.1939 1.22292L14.6606 5.15625C14.6112 5.52053 14.2763 5.77608 13.9119 5.7275L9.91186 5.19417C9.54692 5.1455 9.29052 4.8102 9.33919 4.44524C9.38786 4.08028 9.72312 3.82387 10.0881 3.87253L12.6553 4.21481C11.5713 2.85493 9.88639 2.00001 7.99999 2.00001C4.70151 2.00001 1.99999 4.70153 1.99999 8.00001C1.99999 8.36821 1.70151 8.66667 1.33332 8.66667C0.965136 8.66667 0.666656 8.36821 0.666656 8.00001C0.666656 3.96515 3.96514 0.666672 7.99999 0.666672C10.2279 0.666672 12.2395 1.64844 13.5757 3.23449L13.8727 1.04377C13.9222 0.678919 14.2581 0.423251 14.6229 0.472723ZM15.3333 8.00001C15.3333 7.63181 15.0348 7.33334 14.6667 7.33334C14.2985 7.33334 14 7.63181 14 8.00001C14 11.2985 11.2985 14 7.99999 14C6.11356 14 4.42871 13.1451 3.34471 11.7852L5.91184 12.1275C6.2768 12.1761 6.61211 11.9197 6.66078 11.5548C6.70946 11.1898 6.45302 10.8545 6.08806 10.8059L2.08806 10.2725C1.72368 10.2239 1.38873 10.4795 1.33934 10.8438L0.806003 14.7771C0.75653 15.1419 1.0122 15.4778 1.37704 15.5273C1.7419 15.5768 2.07777 15.3211 2.12724 14.9563L2.42429 12.7655C3.76042 14.3515 5.77204 15.3333 7.99999 15.3333C12.0348 15.3333 15.3333 12.0349 15.3333 8.00001Z" fill="#202327"/>
</g>
<defs>
<clipPath id="clip0_3_3766">
<rect width="16" height="16" fill="white"/>
</clipPath>
</defs>
</svg>

<svg xmlns="http://www.w3.org/2000/svg" viewBox="0 0 16 16" class="sageicon"><path fill-rule="evenodd" d="M14.623.473c.365.05.62.385.57.75l-.532 3.933a.667.667 0 0 1-.75.572l-4-.534a.667.667 0 0 1 .177-1.321l2.567.342A5.926 5.926 0 0 0 8 2C4.702 2 2 4.702 2 8A.667.667 0 1 1 .667 8C.667 3.965 3.965.667 8 .667c2.228 0 4.24.981 5.576 2.567l.297-2.19a.667.667 0 0 1 .75-.571ZM15.333 8A.667.667 0 1 0 14 8c0 3.299-2.701 6-6 6a5.926 5.926 0 0 1-4.655-2.215l2.567.342a.667.667 0 0 0 .176-1.321l-4-.533a.667.667 0 0 0-.749.57l-.533 3.934a.667.667 0 0 0 1.321.18l.297-2.192A7.264 7.264 0 0 0 8 15.333c4.035 0 7.333-3.298 7.333-7.333Z"/></svg>
